azure-patterns/svg-api-management-mono.svg

<svg xmlns="http://www.w3.org/2000/svg" viewBox="0 0 193 193">
                                
                            
  <path fill-rule="evenodd" clip-rule="evenodd" d="M78.4832 126.039H44.5919C27.8366 126.039 14.1278 112.162 14.1278 94.8146C14.1278 77.4675 27.075 63.5898 44.5919 63.5898C47.6383 63.5898 51.0655 64.3608 54.8735 64.7463L61.3471 66.6737L63.2511 60.1204C69.3439 40.0748 88.384 27.7391 110.09 27.7391C136.365 27.7391 156.547 48.1701 156.547 74.769C156.547 79.0094 155.786 83.2499 154.643 87.4903L151.978 97.1276L162.259 95.9711H164.163C171.779 95.9711 177.872 102.524 177.872 109.849C177.872 117.173 172.541 122.57 166.067 123.726H132.176C131.034 114.089 126.083 105.608 119.61 99.055C111.232 90.5742 99.808 85.5628 88.0032 85.5628C79.6256 85.5628 71.248 87.8758 64.7743 92.1162L72.0096 103.681C77.3408 100.597 82.672 99.4405 88.7648 99.4405C97.1424 99.4405 105.52 102.524 110.851 109.078C116.944 115.246 120.371 122.955 120.371 131.436C120.371 139.917 117.325 148.398 110.851 153.795C104.758 160.348 97.1424 163.432 88.7648 163.432C82.672 163.432 76.96 161.505 72.0096 158.035L64.7743 169.6C72.0096 173.84 80.3872 176.924 88.0032 176.924C99.808 176.924 111.232 172.684 119.61 163.818C126.845 156.493 131.034 146.856 132.176 136.833H166.829H167.591C181.299 135.677 191.581 123.726 191.581 109.078C191.581 97.513 180.919 86.7193 168.352 84.4063C169.114 82.0934 169.114 80.9369 169.114 77.082C169.114 43.1587 145.504 16.1743 107.805 16.1743C83.8144 16.1743 62.4895 30.052 53.7311 52.4105C50.6847 52.4105 48.3999 51.2541 44.9727 51.2541C20.2206 50.8686 0.418945 70.1431 0.418945 94.8146C0.418945 119.101 20.2206 138.375 43.8303 138.375H81.1488L78.4832 126.039Z" fill="#1A1A1F"></path>
  <path fill-rule="evenodd" clip-rule="evenodd" d="M87.2422 109.464C99.0471 109.464 108.567 119.102 108.567 131.052C108.567 143.002 99.0471 152.639 87.2422 152.639C75.4336 152.639 65.9136 143.002 65.9136 131.052C65.9136 119.102 75.4336 109.464 87.2422 109.464Z" fill="#1A1A1F"></path>
</svg>

<svg xmlns="http://www.w3.org/2000/svg" viewBox="0 0 193 193"><path fill-rule="evenodd" clip-rule="evenodd" d="M78.483 126.039H44.592c-16.755 0-30.464-13.877-30.464-31.224S27.075 63.59 44.592 63.59c3.046 0 6.474.77 10.282 1.156l6.473 1.928 1.904-6.554c6.093-20.045 25.133-32.38 46.839-32.38 26.275 0 46.457 20.43 46.457 47.029 0 4.24-.761 8.48-1.904 12.721l-2.665 9.638 10.281-1.157h1.904c7.616 0 13.709 6.553 13.709 13.878 0 7.324-5.331 12.721-11.805 13.877h-33.891c-1.142-9.637-6.093-18.118-12.566-24.671-8.378-8.48-19.802-13.492-31.607-13.492-8.377 0-16.755 2.313-23.229 6.553l7.236 11.565c5.33-3.084 10.662-4.24 16.755-4.24 8.377 0 16.755 3.083 22.086 9.637 6.093 6.168 9.52 13.877 9.52 22.358s-3.046 16.962-9.52 22.359c-6.093 6.553-13.709 9.637-22.086 9.637-6.093 0-11.805-1.927-16.755-5.397L64.774 169.6c7.236 4.24 15.613 7.324 23.23 7.324 11.804 0 23.228-4.24 31.606-13.106 7.235-7.325 11.424-16.962 12.566-26.985h35.415c13.708-1.156 23.99-13.107 23.99-27.755 0-11.565-10.662-22.359-23.229-24.672.762-2.313.762-3.47.762-7.324 0-33.923-23.61-60.908-61.309-60.908-23.99 0-45.316 13.878-54.074 36.236-3.046 0-5.331-1.156-8.758-1.156C20.22 50.87.419 70.144.419 94.814c0 24.287 19.802 43.561 43.411 43.561H81.15l-2.666-12.336z" fill="#1A1A1F"/><path fill-rule="evenodd" clip-rule="evenodd" d="M87.242 109.464c11.805 0 21.325 9.638 21.325 21.588 0 11.95-9.52 21.587-21.325 21.587-11.808 0-21.328-9.637-21.328-21.587s9.52-21.588 21.328-21.588z" fill="#1A1A1F"/></svg>
